public/assets/imgs/linhas/loft-logo-branca.svg

<svg fill="none" height="199" viewBox="0 0 468 199" width="468" xmlns="http://www.w3.org/2000/svg"><g fill="#fff"><path d="m88.46 193v-16.352h5.7275c1.984 0 3.4889.382 4.5146 1.146 1.0258.756 1.5389 1.868 1.5389 3.335 0 .802-.206 1.509-.618 2.123-.4117.606-.9845 1.052-1.7182 1.336.8385.21 1.4974.633 1.9765 1.269.4867.637.7297 1.415.7297 2.336 0 1.573-.501 2.763-1.5046 3.572-1.0032.808-2.4332 1.22-4.29 1.235zm3.3691-7.12v4.413h2.8862c.7937 0 1.4113-.187 1.8531-.561.4492-.382.6738-.906.6738-1.572 0-1.498-.7749-2.258-2.3247-2.28zm0-2.381h2.4932c1.6995-.03 2.5493-.707 2.5493-2.033 0-.741-.2171-1.272-.6514-1.594-.4267-.33-1.1043-.495-2.0327-.495h-2.3584zm24.7519 1.696c0 1.61-.284 3.021-.853 4.234s-1.386 2.148-2.449 2.807c-1.055.659-2.268.989-3.638.989-1.356 0-2.565-.326-3.628-.977-1.063-.652-1.887-1.58-2.471-2.786-.584-1.212-.879-2.605-.887-4.177v-.809c0-1.61.289-3.025.865-4.245.584-1.228 1.404-2.168 2.459-2.819 1.064-.659 2.277-.988 3.639-.988 1.363 0 2.572.329 3.628.988 1.063.651 1.883 1.591 2.459 2.819.584 1.22.876 2.632.876 4.234zm-3.414-.741c0-1.715-.307-3.018-.921-3.909s-1.49-1.336-2.628-1.336c-1.13 0-2.003.442-2.617 1.325-.613.876-.924 2.164-.932 3.863v.798c0 1.669.307 2.965.921 3.886.614.92 1.498 1.381 2.651 1.381 1.13 0 1.999-.442 2.605-1.325.607-.891.914-2.186.921-3.886zm14.847 5.177h-5.908l-1.123 3.369h-3.582l6.087-16.352h3.122l6.12 16.352h-3.582zm-4.998-2.729h4.088l-2.055-6.121zm23.011 2.044 3.706-12.298h3.751l-5.693 16.352h-3.516l-5.671-16.352h3.74zm12.59 4.054h-3.369v-16.352h3.369zm12.567-3.369h-5.908l-1.123 3.369h-3.582l6.087-16.352h3.122l6.12 16.352h-3.582zm-4.998-2.729h4.088l-2.055-6.121zm23.932 4.032c-.606.726-1.464 1.291-2.572 1.695-1.108.397-2.336.596-3.683.596-1.415 0-2.658-.307-3.729-.921-1.063-.622-1.886-1.52-2.47-2.696-.577-1.175-.873-2.556-.888-4.144v-1.111c0-1.633.274-3.044.82-4.234.554-1.198 1.348-2.112 2.381-2.741 1.041-.636 2.257-.954 3.65-.954 1.939 0 3.455.464 4.548 1.392 1.093.921 1.741 2.265 1.943 4.032h-3.279c-.15-.936-.483-1.621-1-2.055-.509-.434-1.213-.651-2.111-.651-1.145 0-2.018.43-2.617 1.291s-.902 2.141-.909 3.841v1.044c0 1.715.325 3.01.977 3.886.651.876 1.606 1.314 2.863 1.314 1.266 0 2.168-.269 2.707-.809v-2.818h-3.066v-2.482h6.435zm12.578-5.02h-6.468v4.379h7.591v2.707h-10.961v-16.352h10.939v2.729h-7.569v3.897h6.468zm7.502-9.266 4.2 11.86 4.178-11.86h4.425v16.352h-3.38v-4.47l.337-7.715-4.414 12.185h-2.314l-4.402-12.174.337 7.704v4.47h-3.369v-16.352zm34.781 16.352h-3.369v-7.008h-6.57v7.008h-3.369v-16.352h3.369v6.626h6.57v-6.626h3.369zm16.385-7.805c0 1.61-.284 3.021-.853 4.234s-1.385 2.148-2.449 2.807c-1.055.659-2.268.989-3.638.989-1.355 0-2.564-.326-3.628-.977-1.063-.652-1.886-1.58-2.47-2.786-.584-1.212-.88-2.605-.888-4.177v-.809c0-1.61.289-3.025.865-4.245.584-1.228 1.404-2.168 2.46-2.819 1.063-.659 2.276-.988 3.638-.988 1.363 0 2.572.329 3.628.988 1.063.651 1.883 1.591 2.459 2.819.584 1.22.876 2.632.876 4.234zm-3.414-.741c0-1.715-.307-3.018-.921-3.909s-1.49-1.336-2.628-1.336c-1.13 0-2.002.442-2.616 1.325-.614.876-.925 2.164-.932 3.863v.798c0 1.669.307 2.965.92 3.886.614.92 1.498 1.381 2.651 1.381 1.13 0 1.999-.442 2.605-1.325.607-.891.914-2.186.921-3.886zm10.265-7.806 4.2 11.86 4.178-11.86h4.425v16.352h-3.381v-4.47l.337-7.715-4.413 12.185h-2.314l-4.402-12.174.337 7.704v4.47h-3.37v-16.352zm25.583 9.266h-6.469v4.379h7.592v2.707h-10.961v-16.352h10.938v2.729h-7.569v3.897h6.469zm8.827 7.086v-16.352h5.031c1.438 0 2.722.326 3.852.977 1.138.644 2.026 1.565 2.662 2.763.636 1.191.955 2.546.955 4.066v.752c0 1.52-.315 2.871-.944 4.054-.621 1.183-1.501 2.1-2.639 2.752-1.138.651-2.422.981-3.852.988zm3.369-13.623v10.916h1.629c1.317 0 2.324-.43 3.021-1.291.696-.861 1.051-2.093 1.066-3.695v-.865c0-1.662-.344-2.92-1.033-3.773-.689-.861-1.696-1.292-3.021-1.292zm21.428 6.537h-6.469v4.379h7.592v2.707h-10.961v-16.352h10.938v2.729h-7.569v3.897h6.469zm11.578 2.796c0-.636-.224-1.123-.673-1.46-.45-.344-1.258-.704-2.426-1.078-1.168-.382-2.093-.756-2.774-1.123-1.857-1.003-2.785-2.355-2.785-4.054 0-.884.247-1.67.741-2.359.502-.696 1.217-1.239 2.145-1.628.936-.39 1.984-.584 3.145-.584 1.168 0 2.208.213 3.122.64.913.419 1.621 1.014 2.122 1.786.509.771.764 1.647.764 2.628h-3.369c0-.749-.236-1.329-.708-1.741-.471-.419-1.134-.629-1.988-.629-.823 0-1.463.176-1.92.528-.457.344-.685.801-.685 1.37 0 .531.266.977.797 1.336.539.36 1.329.697 2.37 1.011 1.917.577 3.313 1.292 4.189 2.145.876.854 1.314 1.917 1.314 3.19 0 1.415-.535 2.526-1.606 3.335-1.071.801-2.512 1.202-4.324 1.202-1.258 0-2.403-.229-3.436-.685-1.034-.465-1.823-1.097-2.37-1.898-.539-.802-.809-1.73-.809-2.786h3.381c0 1.805 1.078 2.707 3.234 2.707.801 0 1.426-.161 1.876-.483.449-.329.673-.786.673-1.37zm9.254 4.29h-3.369v-16.352h3.369zm16.071-2.066c-.606.726-1.464 1.291-2.572 1.695-1.108.397-2.336.596-3.683.596-1.415 0-2.658-.307-3.729-.921-1.063-.622-1.886-1.52-2.47-2.696-.577-1.175-.873-2.556-.888-4.144v-1.111c0-1.633.274-3.044.82-4.234.554-1.198 1.348-2.112 2.381-2.741 1.041-.636 2.257-.954 3.65-.954 1.939 0 3.455.464 4.548 1.392 1.093.921 1.741 2.265 1.943 4.032h-3.279c-.15-.936-.483-1.621-1-2.055-.509-.434-1.213-.651-2.111-.651-1.145 0-2.018.43-2.617 1.291s-.902 2.141-.909 3.841v1.044c0 1.715.325 3.01.977 3.886.651.876 1.606 1.314 2.864 1.314 1.265 0 2.167-.269 2.706-.809v-2.818h-3.066v-2.482h6.435zm16.037 2.066h-3.369l-6.558-10.759v10.759h-3.37v-16.352h3.37l6.569 10.782v-10.782h3.358z"/><path d="m0 99.5v-99.5c18.8 0 28.5 23 31 34.5v67.5c0 2.761 2.2338 5 4.9952 5h35.0048c19.6 0 29.833 21.667 32.5 32.5h-63.5c-22.0914 0-40-17.909-40-40z"/><path clip-rule="evenodd" d="m141 19.5c-23.748 0-43 19.2517-43 43v34c0 23.748 19.252 43 43 43h46c23.748 0 43-19.252 43-43v-34c0-23.7483-19.252-43-43-43zm0 31c-6.627 0-12 5.3726-12 12v35c0 6.627 5.373 12 12 12h46c6.627 0 12-5.373 12-12v-35c0-6.6274-5.373-12-12-12z" fill-rule="evenodd"/><path d="m238.5 58.5v80c21.2 0 29.5-31 29.5-31l3-10.5h16.5c15.2 0 28-21.6667 32.5-32.5h-51.5c0-9.6 5.667-12 8.5-12h38.5c21.2 0 30.833-22 33-33h-71c-21.539 0-39 17.4609-39 39z"/><path d="m380.5 63v74c22.8 0 29.833-21.333 30.5-32v-44c0-8 7-10.3333 10.5-10.5h17c18.4 0 27.333-19.6667 29.5-29.5h-90c-23.6 0-32.833 19.6667-34.5 29.5h24.5c9.2 0 12.167 8.3333 12.5 12.5z"/></g></svg>

<svg width="468" height="199" viewBox="0 0 468 199" fill="none" xmlns="http://www.w3.org/2000/svg">
<path d="M88.46 193V176.648H94.1875C96.1715 176.648 97.6764 177.03 98.7021 177.794C99.7279 178.55 100.241 179.662 100.241 181.129C100.241 181.931 100.035 182.638 99.623 183.252C99.2113 183.858 98.6385 184.304 97.9048 184.588C98.7433 184.798 99.4022 185.221 99.8813 185.857C100.368 186.494 100.611 187.272 100.611 188.193C100.611 189.766 100.11 190.956 99.1064 191.765C98.1032 192.573 96.6732 192.985 94.8164 193H88.46ZM91.8291 185.88V190.293H94.7153C95.509 190.293 96.1266 190.106 96.5684 189.732C97.0176 189.35 97.2422 188.826 97.2422 188.16C97.2422 186.662 96.4673 185.902 94.9175 185.88H91.8291ZM91.8291 183.499H94.3223C96.0218 183.469 96.8716 182.792 96.8716 181.466C96.8716 180.725 96.6545 180.194 96.2202 179.872C95.7935 179.542 95.1159 179.377 94.1875 179.377H91.8291V183.499ZM116.581 185.195C116.581 186.805 116.297 188.216 115.728 189.429C115.159 190.642 114.342 191.577 113.279 192.236C112.224 192.895 111.011 193.225 109.641 193.225C108.285 193.225 107.076 192.899 106.013 192.248C104.95 191.596 104.126 190.668 103.542 189.462C102.958 188.25 102.663 186.857 102.655 185.285V184.476C102.655 182.866 102.944 181.451 103.52 180.231C104.104 179.003 104.924 178.063 105.979 177.412C107.043 176.753 108.256 176.424 109.618 176.424C110.981 176.424 112.19 176.753 113.246 177.412C114.309 178.063 115.129 179.003 115.705 180.231C116.289 181.451 116.581 182.863 116.581 184.465V185.195ZM113.167 184.454C113.167 182.739 112.86 181.436 112.246 180.545C111.632 179.654 110.756 179.209 109.618 179.209C108.488 179.209 107.615 179.651 107.001 180.534C106.388 181.41 106.077 182.698 106.069 184.397V185.195C106.069 186.864 106.376 188.16 106.99 189.081C107.604 190.001 108.488 190.462 109.641 190.462C110.771 190.462 111.64 190.02 112.246 189.137C112.853 188.246 113.16 186.951 113.167 185.251V184.454ZM128.014 189.631H122.106L120.983 193H117.401L123.488 176.648H126.61L132.73 193H129.148L128.014 189.631ZM123.016 186.902H127.104L125.049 180.781L123.016 186.902ZM146.027 188.946L149.733 176.648H153.484L147.791 193H144.275L138.604 176.648H142.344L146.027 188.946ZM158.617 193H155.248V176.648H158.617V193ZM171.184 189.631H165.276L164.153 193H160.571L166.658 176.648H169.78L175.9 193H172.318L171.184 189.631ZM166.186 186.902H170.274L168.219 180.781L166.186 186.902ZM190.118 190.934C189.512 191.66 188.654 192.225 187.546 192.629C186.438 193.026 185.21 193.225 183.863 193.225C182.448 193.225 181.205 192.918 180.134 192.304C179.071 191.682 178.248 190.784 177.664 189.608C177.087 188.433 176.791 187.052 176.776 185.464V184.353C176.776 182.72 177.05 181.309 177.596 180.119C178.15 178.921 178.944 178.007 179.977 177.378C181.018 176.742 182.234 176.424 183.627 176.424C185.566 176.424 187.082 176.888 188.175 177.816C189.268 178.737 189.916 180.081 190.118 181.848H186.839C186.689 180.912 186.356 180.227 185.839 179.793C185.33 179.359 184.626 179.142 183.728 179.142C182.583 179.142 181.71 179.572 181.111 180.433C180.512 181.294 180.209 182.574 180.202 184.274V185.318C180.202 187.033 180.527 188.328 181.179 189.204C181.83 190.08 182.785 190.518 184.042 190.518C185.308 190.518 186.21 190.249 186.749 189.709V186.891H183.683V184.409H190.118V190.934ZM202.696 185.914H196.228V190.293H203.819V193H192.858V176.648H203.797V179.377H196.228V183.274H202.696V185.914ZM210.198 176.648L214.398 188.508L218.576 176.648H223.001V193H219.621V188.53L219.958 180.815L215.544 193H213.23L208.828 180.826L209.165 188.53V193H205.796V176.648H210.198ZM244.979 193H241.61V185.992H235.04V193H231.671V176.648H235.04V183.274H241.61V176.648H244.979V193ZM261.364 185.195C261.364 186.805 261.08 188.216 260.511 189.429C259.942 190.642 259.126 191.577 258.062 192.236C257.007 192.895 255.794 193.225 254.424 193.225C253.069 193.225 251.86 192.899 250.796 192.248C249.733 191.596 248.91 190.668 248.326 189.462C247.742 188.25 247.446 186.857 247.438 185.285V184.476C247.438 182.866 247.727 181.451 248.303 180.231C248.887 179.003 249.707 178.063 250.763 177.412C251.826 176.753 253.039 176.424 254.401 176.424C255.764 176.424 256.973 176.753 258.029 177.412C259.092 178.063 259.912 179.003 260.488 180.231C261.072 181.451 261.364 182.863 261.364 184.465V185.195ZM257.95 184.454C257.95 182.739 257.643 181.436 257.029 180.545C256.415 179.654 255.539 179.209 254.401 179.209C253.271 179.209 252.399 179.651 251.785 180.534C251.171 181.41 250.86 182.698 250.853 184.397V185.195C250.853 186.864 251.16 188.16 251.773 189.081C252.387 190.001 253.271 190.462 254.424 190.462C255.554 190.462 256.423 190.02 257.029 189.137C257.636 188.246 257.943 186.951 257.95 185.251V184.454ZM268.215 176.648L272.415 188.508L276.593 176.648H281.018V193H277.637V188.53L277.974 180.815L273.561 193H271.247L266.845 180.826L267.182 188.53V193H263.812V176.648H268.215ZM293.798 185.914H287.329V190.293H294.921V193H283.96V176.648H294.898V179.377H287.329V183.274H293.798V185.914ZM302.625 193V176.648H307.656C309.094 176.648 310.378 176.974 311.508 177.625C312.646 178.269 313.534 179.19 314.17 180.388C314.806 181.579 315.125 182.934 315.125 184.454V185.206C315.125 186.726 314.81 188.077 314.181 189.26C313.56 190.443 312.68 191.36 311.542 192.012C310.404 192.663 309.12 192.993 307.69 193H302.625ZM305.994 179.377V190.293H307.623C308.94 190.293 309.947 189.863 310.644 189.002C311.34 188.141 311.695 186.909 311.71 185.307V184.442C311.71 182.78 311.366 181.522 310.677 180.669C309.988 179.808 308.981 179.377 307.656 179.377H305.994ZM327.422 185.914H320.953V190.293H328.545V193H317.584V176.648H328.522V179.377H320.953V183.274H327.422V185.914ZM339 188.71C339 188.074 338.776 187.587 338.327 187.25C337.877 186.906 337.069 186.546 335.901 186.172C334.733 185.79 333.808 185.416 333.127 185.049C331.27 184.046 330.342 182.694 330.342 180.995C330.342 180.111 330.589 179.325 331.083 178.636C331.585 177.94 332.3 177.397 333.228 177.008C334.164 176.618 335.212 176.424 336.373 176.424C337.541 176.424 338.581 176.637 339.495 177.064C340.408 177.483 341.116 178.078 341.617 178.85C342.126 179.621 342.381 180.497 342.381 181.478H339.012C339.012 180.729 338.776 180.149 338.304 179.737C337.833 179.318 337.17 179.108 336.316 179.108C335.493 179.108 334.853 179.284 334.396 179.636C333.939 179.98 333.711 180.437 333.711 181.006C333.711 181.537 333.977 181.983 334.508 182.342C335.047 182.702 335.837 183.039 336.878 183.353C338.795 183.93 340.191 184.645 341.067 185.498C341.943 186.352 342.381 187.415 342.381 188.688C342.381 190.103 341.846 191.214 340.775 192.023C339.704 192.824 338.263 193.225 336.451 193.225C335.193 193.225 334.048 192.996 333.015 192.54C331.981 192.075 331.192 191.443 330.645 190.642C330.106 189.84 329.836 188.912 329.836 187.856H333.217C333.217 189.661 334.295 190.563 336.451 190.563C337.252 190.563 337.877 190.402 338.327 190.08C338.776 189.751 339 189.294 339 188.71ZM348.254 193H344.885V176.648H348.254V193ZM364.325 190.934C363.719 191.66 362.861 192.225 361.753 192.629C360.645 193.026 359.417 193.225 358.07 193.225C356.655 193.225 355.412 192.918 354.341 192.304C353.278 191.682 352.455 190.784 351.871 189.608C351.294 188.433 350.998 187.052 350.983 185.464V184.353C350.983 182.72 351.257 181.309 351.803 180.119C352.357 178.921 353.151 178.007 354.184 177.378C355.225 176.742 356.441 176.424 357.834 176.424C359.773 176.424 361.289 176.888 362.382 177.816C363.475 178.737 364.123 180.081 364.325 181.848H361.046C360.896 180.912 360.563 180.227 360.046 179.793C359.537 179.359 358.833 179.142 357.935 179.142C356.79 179.142 355.917 179.572 355.318 180.433C354.719 181.294 354.416 182.574 354.409 184.274V185.318C354.409 187.033 354.734 188.328 355.386 189.204C356.037 190.08 356.992 190.518 358.25 190.518C359.515 190.518 360.417 190.249 360.956 189.709V186.891H357.89V184.409H364.325V190.934ZM380.362 193H376.993L370.435 182.241V193H367.065V176.648H370.435L377.004 187.43V176.648H380.362V193Z" fill="white"/>
<path d="M0 99.5V0C18.8 0 28.5 23 31 34.5V102C31 104.761 33.2338 107 35.9952 107H71C90.6 107 100.833 128.667 103.5 139.5H40C17.9086 139.5 0 121.591 0 99.5Z" fill="white"/>
<path fill-rule="evenodd" clip-rule="evenodd" d="M141 19.5C117.252 19.5 98 38.7517 98 62.5V96.5C98 120.248 117.252 139.5 141 139.5H187C210.748 139.5 230 120.248 230 96.5V62.5C230 38.7517 210.748 19.5 187 19.5H141ZM141 50.5C134.373 50.5 129 55.8726 129 62.5V97.5C129 104.127 134.373 109.5 141 109.5H187C193.627 109.5 199 104.127 199 97.5V62.5C199 55.8726 193.627 50.5 187 50.5H141Z" fill="white"/>
<path d="M238.5 58.5V138.5C259.7 138.5 268 107.5 268 107.5L271 97H287.5C302.7 97 315.5 75.3333 320 64.5H268.5C268.5 54.9 274.167 52.5 277 52.5H315.5C336.7 52.5 346.333 30.5 348.5 19.5H277.5C255.961 19.5 238.5 36.9609 238.5 58.5Z" fill="white"/>
<path d="M380.5 63V137C403.3 137 410.333 115.667 411 105V61C411 53 418 50.6667 421.5 50.5H438.5C456.9 50.5 465.833 30.8333 468 21H378C354.4 21 345.167 40.6667 343.5 50.5H368C377.2 50.5 380.167 58.8333 380.5 63Z" fill="white"/>
</svg>
